X: 1
T: Halling fra Telemark - 68
O: Norway
S: printed MS of unknown origin
N: has "- 68" after the title
Z: 2010 John Chambers <jc:trillian.mit.edu>
M: 2/4
L: 1/16
Q: 1/4=60
K: D
c2 \
| "D"defg "A7"a2ge | "D"g2fd "A7"A3c  | "D"defg "A7"a2ge | "D"g2fd "A7"A3c |
  "D"defg "A7"a2ge | "D"g2fd "A7"fae2 | "D"defg "A7"a2ge | "D"g2fd "A7"fae2 |
  "D"dc"A7"Bc "G"d4- | "G"dB"Gm"ec "A7"ABcA | "E7"^GB"Gm"ec "D"d4- | "G"dB"Gm"ec "A7"ABcA |
  "E7"^GB"Gm"ec "D"d4 | "D"A3B "A7"AGFE | "D"D3F "A7"EGEG | "D"DFAF "A7"EGEG |
  "D"D3F "A7"EGEG | "D"DFAF "A7"EGEG | "D"A3B "A7"AGFE | "D"D2CB, "A7"A3c |
  "D"d2"A7"cB "D"A2"A7"A2 | "D"AGFE "A7"D2cB | "A7"G2FE "D"F2 |] y4 y4 y4 y4
